X:48
T: Rache im Zweikampf
N: Q2097D
O: Mitteleuropa, Frankreich, franzoesische Alpen, Haut Savoie, Faucigny
N: Franzoesische Fassung der Ballade.
R: Ballade, Frau in Maennerkleidung, Soldat, Betrug, Rache
M: 3/8
L: 1/8
K: C
 | ccc | cAB | cBA | G2G
ccc | cAB | cBA | Gz
A | G2F | E2z | cde | e2d | dc
e | G2F | E3 | ABA | GBd | c3

